svg/icon/ebst.svg

<svg height="32" viewBox="0 0 32 32" width="32" xmlns="http://www.w3.org/2000/svg" xmlns:xlink="http://www.w3.org/1999/xlink"><defs><linearGradient id="a" x1="50%" x2="50%" y1="0%" y2="100%"><stop offset="0" stop-color="#fff" stop-opacity=".5"/><stop offset="1" stop-opacity=".5"/></linearGradient><circle id="b" cx="16" cy="15" r="15"/><filter id="c" height="111.7%" width="111.7%" x="-5.8%" y="-4.2%"><feOffset dy=".5" in="SourceAlpha" result="shadowOffsetOuter1"/><feGaussianBlur in="shadowOffsetOuter1" result="shadowBlurOuter1" stdDeviation=".5"/><feComposite in="shadowBlurOuter1" in2="SourceAlpha" operator="out" result="shadowBlurOuter1"/><feColorMatrix in="shadowBlurOuter1" values="0 0 0 0 0   0 0 0 0 0   0 0 0 0 0  0 0 0 0.199473505 0"/></filter><path id="d" d="m9.92778895 15.5738397c-.01351104-.189532-.02038154-.3808881-.02038154-.5738397 0-.170068.00533749-.3388966.01585501-.5063291h-2.79980563l-3.12345679-2.4978903h6.494009c1.1946976-2.92959504 4.084508-4.9957806 7.4596947-4.9957806 4.4438467 0 8.0462963 3.581722 8.0462963 8s-3.6024496 8-8.0462963 8c-3.3492012 0-6.2204712-2.034493-7.4318-4.92827h-6.5219037l3.12345679-2.4978903zm12.60924805-.4252633c0-.8292676-.112469-1.5532711-.3374104-2.1720323s-.5366413-1.135451-.935109-1.5500847c-.3984677-.4146338-.8708376-.7271992-1.4171239-.9377056s-1.1407655-.315758-1.7834553-.315758c-.694105 0-1.3399985.1180094-1.9377.3540317s-1.1150591.5677243-1.5520881.9951161c-.4370291.4273917-.780863.9440815-1.031512 1.5500847s-.3759716 1.2789757-.3759716 2.0189375c0 .7527198.1253226 1.4256923.3759716 2.0189375.250649.5932453.5976963 1.0939878 1.0411523 1.5022426.4434559.4082548.9672403.7240097 1.5713687.947274.6041284.2232644 1.2660889.3348949 1.9859015.3348949 1.7352625 0 3.0591836-.6123731 3.9718031-1.8371375l-1.5424478-1.2247583c-.2570759.3699809-.5848428.6602202-.9833105.8707266-.3984676.2105064-.8869046.315758-1.4653254.315758-.3341987 0-.6555388-.0574099-.9640299-.1722316s-.5848435-.2711044-.8290656-.4688528c-.2442222-.1977484-.4402396-.4337672-.5880583-.7080634-.1478186-.2742962-.2345804-.5772933-.260288-.9090003h7.037418c.0128538-.1020637.0192806-.2041259.0192806-.3061896zm-2.3136717-1.0333898h-4.7430269c.0514151-.6506561.3181274-1.1832931.8001448-1.5979269.4820173-.4146338 1.0700696-.6219476 1.7641746-.6219476.3727601 0 .6973136.0605995.9736702.1818001s.5045081.2838622.6844612.4879896c.1799532.2041274.3117026.4401462.3952523.7080634.0835496.2679172.1253238.5485882.1253238.8420214z"/><filter id="e" height="121.9%" width="115.9%" x="-8%" y="-7.8%"><feOffset dy=".5" in="SourceAlpha" result="shadowOffsetOuter1"/><feGaussianBlur in="shadowOffsetOuter1" result="shadowBlurOuter1" stdDeviation=".5"/><feColorMatrix in="shadowBlurOuter1" values="0 0 0 0 0   0 0 0 0 0   0 0 0 0 0  0 0 0 0.204257246 0"/></filter></defs><g fill="none" fill-rule="evenodd"><g fill-rule="nonzero"><use fill="#000" filter="url(#c)" xlink:href="#b"/><use fill="#1693d4" fill-rule="evenodd" xlink:href="#b"/><use fill="url(#a)" fill-rule="evenodd" xlink:href="#b"/><circle cx="16" cy="15" r="14.5" stroke="#000" stroke-opacity=".097"/></g><use fill="#000" filter="url(#e)" xlink:href="#d"/><use fill="#fff" xlink:href="#d"/></g></svg>

<svg xmlns="http://www.w3.org/2000/svg" xmlns:xlink="http://www.w3.org/1999/xlink" width="32" height="32" viewBox="0 0 32 32">
  <defs>
    <linearGradient id="ebst-c" x1="50%" x2="50%" y1="0%" y2="100%">
      <stop offset="0%" stop-color="#FFF" stop-opacity=".5"/>
      <stop offset="100%" stop-opacity=".5"/>
    </linearGradient>
    <circle id="ebst-b" cx="16" cy="15" r="15"/>
    <filter id="ebst-a" width="111.7%" height="111.7%" x="-5.8%" y="-4.2%" filterUnits="objectBoundingBox">
      <feOffset dy=".5" in="SourceAlpha" result="shadowOffsetOuter1"/>
      <feGaussianBlur in="shadowOffsetOuter1" result="shadowBlurOuter1" stdDeviation=".5"/>
      <feComposite in="shadowBlurOuter1" in2="SourceAlpha" operator="out" result="shadowBlurOuter1"/>
      <feColorMatrix in="shadowBlurOuter1" values="0 0 0 0 0   0 0 0 0 0   0 0 0 0 0  0 0 0 0.199473505 0"/>
    </filter>
    <path id="ebst-e" d="M9.92778895,15.5738397 C9.91427791,15.3843077 9.90740741,15.1929516 9.90740741,15 C9.90740741,14.829932 9.9127449,14.6611034 9.92326242,14.4936709 L7.12345679,14.4936709 L4,11.9957806 L10.494009,11.9957806 C11.6887066,9.06618556 14.578517,7 17.9537037,7 C22.3975504,7 26,10.581722 26,15 C26,19.418278 22.3975504,23 17.9537037,23 C14.6045025,23 11.7332325,20.965507 10.5219037,18.07173 L4,18.07173 L7.12345679,15.5738397 L9.92778895,15.5738397 Z M22.537037,15.1485764 C22.537037,14.3193088 22.424568,13.5953053 22.1996266,12.9765441 C21.9746852,12.3577829 21.6629853,11.8410931 21.2645176,11.4264594 C20.8660499,11.0118256 20.39368,10.6992602 19.8473937,10.4887538 C19.3011074,10.2782474 18.7066282,10.1729958 18.0639384,10.1729958 C17.3698334,10.1729958 16.7239399,10.2910052 16.1262384,10.5270275 C15.5285369,10.7630498 15.0111793,11.0947518 14.5741503,11.5221436 C14.1371212,11.9495353 13.7932873,12.4662251 13.5426383,13.0722283 C13.2919893,13.6782315 13.1666667,14.351204 13.1666667,15.0911658 C13.1666667,15.8438856 13.2919893,16.5168581 13.5426383,17.1101033 C13.7932873,17.7033486 14.1403346,18.2040911 14.5837906,18.6123459 C15.0272465,19.0206007 15.5510309,19.3363556 16.1551593,19.5596199 C16.7592877,19.7828843 17.4212482,19.8945148 18.1410608,19.8945148 C19.8763233,19.8945148 21.2002444,19.2821417 22.1128639,18.0573773 L20.5704161,16.832619 C20.3133402,17.2025999 19.9855733,17.4928392 19.5871056,17.7033456 C19.188638,17.913852 18.700201,18.0191036 18.1217802,18.0191036 C17.7875815,18.0191036 17.4662414,17.9616937 17.1577503,17.846872 C16.8492592,17.7320503 16.5729068,17.5757676 16.3286847,17.3780192 C16.0844625,17.1802708 15.8884451,16.944252 15.7406264,16.6699558 C15.5928078,16.3956596 15.506046,16.0926625 15.4803384,15.7609555 L22.5177564,15.7609555 C22.5306102,15.6588918 22.537037,15.5568296 22.537037,15.4547659 L22.537037,15.1485764 Z M20.2233653,14.1151866 L15.4803384,14.1151866 C15.5317535,13.4645305 15.7984658,12.9318935 16.2804832,12.5172597 C16.7625005,12.1026259 17.3505528,11.8953121 18.0446578,11.8953121 C18.4174179,11.8953121 18.7419714,11.9559116 19.018328,12.0771122 C19.2946846,12.1983128 19.5228361,12.3609744 19.7027892,12.5651018 C19.8827424,12.7692292 20.0144918,13.005248 20.0980415,13.2731652 C20.1815911,13.5410824 20.2233653,13.8217534 20.2233653,14.1151866 Z"/>
    <filter id="ebst-d" width="115.9%" height="121.9%" x="-8%" y="-7.8%" filterUnits="objectBoundingBox">
      <feOffset dy=".5" in="SourceAlpha" result="shadowOffsetOuter1"/>
      <feGaussianBlur in="shadowOffsetOuter1" result="shadowBlurOuter1" stdDeviation=".5"/>
      <feColorMatrix in="shadowBlurOuter1" values="0 0 0 0 0   0 0 0 0 0   0 0 0 0 0  0 0 0 0.204257246 0"/>
    </filter>
  </defs>
  <g fill="none" fill-rule="evenodd">
    <g fill-rule="nonzero">
      <use fill="#000" filter="url(#ebst-a)" xlink:href="#ebst-b"/>
      <use fill="#1693D4" fill-rule="evenodd" xlink:href="#ebst-b"/>
      <use fill="url(#ebst-c)" fill-rule="evenodd" style="mix-blend-mode:soft-light" xlink:href="#ebst-b"/>
      <circle cx="16" cy="15" r="14.5" stroke="#000" stroke-opacity=".097"/>
    </g>
    <use fill="#000" filter="url(#ebst-d)" xlink:href="#ebst-e"/>
    <use fill="#FFF" xlink:href="#ebst-e"/>
  </g>
</svg>
